X: 30439
T: Old Wagon Way, The
R: reel
M: 4/4
K: Gmajor
|:B2AG GcBA|B2AG E2Dc|B2AG GcBA|Bd2E D3c:|
|:Bd2E DB,DG|ABAG E2Dc|Bd2E DB,DG|ABAG D3c:|

